svg/logo/codepen_fill.svg

<?xml version="1.0" encoding="UTF-8"?>
<svg width="24px" height="24px" viewBox="0 0 24 24" version="1.1" xmlns="http://www.w3.org/2000/svg" xmlns:xlink="http://www.w3.org/1999/xlink">
    <title>codepen_fill</title>
    <g id="Icon" stroke="none" stroke-width="1" fill="none" fill-rule="evenodd">
        <g id="Logo" transform="translate(-240.000000, -240.000000)">
            <g id="codepen_fill" transform="translate(240.000000, 240.000000)">
                <path d="M24,0 L24,24 L0,24 L0,0 L24,0 Z M12.5935,23.2578 L12.5819,23.2595 L12.5109,23.295 L12.4919,23.2987 L12.4767,23.295 L12.4057,23.2595 C12.3958,23.2564 12.387,23.259 12.3821,23.2649 L12.378,23.2758 L12.3609,23.7031 L12.3659,23.7235 L12.3769,23.7357 L12.4805,23.8097 L12.4953,23.8136 L12.5071,23.8097 L12.6107,23.7357 L12.6233,23.7197 L12.6267,23.7031 L12.6096,23.2758 C12.6076,23.2657 12.601,23.2593 12.5935,23.2578 Z M12.8584,23.1453 L12.8445,23.1473 L12.6598,23.2397 L12.6499,23.2499 L12.6472,23.2611 L12.6651,23.6906 L12.6699,23.7034 L12.6784,23.7105 L12.8793,23.8032 C12.8914,23.8069 12.9022,23.803 12.9078,23.7952 L12.9118,23.7812 L12.8777,23.1665 C12.8753,23.1546 12.8674,23.147 12.8584,23.1453 Z M12.143,23.1473 C12.1332,23.1424 12.1222,23.1453 12.1156,23.1526 L12.1099,23.1665 L12.0758,23.7812 C12.0751,23.7927 12.0828,23.8019 12.0926,23.8046 L12.1083,23.8032 L12.3092,23.7105 L12.3186,23.7024 L12.3225,23.6906 L12.3404,23.2611 L12.3372,23.2485 L12.3278,23.2397 L12.143,23.1473 Z" id="MingCute" fill-rule="nonzero"></path>
                <path d="M13.25,2.79465 L21.248,7.4123 C22.0215,7.85889 22.498,8.6842 22.498,9.57737 L22.498,14.4226 C22.498,15.3158 22.0215,16.1411 21.248,16.5877 L13.25,21.2053 C12.4765,21.6519 11.5235,21.6519 10.75,21.2053 L2.75195,16.5877 C1.97845,16.1411 1.50195,15.3158 1.50195,14.4226 L1.50195,9.57737 C1.50195,8.6842 1.97845,7.85889 2.75195,7.4123 L10.75,2.79465 C11.5235,2.34807 12.4765,2.34807 13.25,2.79465 Z M8.19811,13.7321 L6.00199,15 L10.5,17.5969 L10.5,15.061 L8.19811,13.7321 Z M15.8018,13.7321 L13.5,15.061 L13.5,17.5969 L17.9979,15 L15.8018,13.7321 Z M12,11.5371 L11.1981,12 L12,12.4629 L12.8018,12 L12,11.5371 Z M4.50195,11.5981 L4.50195,12.4019 L5.19811,12 L4.50195,11.5981 Z M19.498,11.5981 L18.8018,12 L19.498,12.4019 L19.498,11.5981 Z M13.5,6.40312 L13.5,8.939 L15.8018,10.2679 L17.9979,9.00001 L13.5,6.40312 Z M10.5,6.40307 L6.00197,9.00001 L8.19811,10.2679 L10.5,8.93895 L10.5,6.40307 Z" id="形状" fill="#09244B"></path>
            </g>
        </g>
    </g>
</svg>

<svg xmlns="http://www.w3.org/2000/svg" width="24" height="24"><g fill="none" fill-rule="evenodd"><path d="M24 0v24H0V0h24ZM12.594 23.258l-.012.002-.071.035-.02.004-.014-.004-.071-.036c-.01-.003-.019 0-.024.006l-.004.01-.017.428.005.02.01.013.104.074.015.004.012-.004.104-.074.012-.016.004-.017-.017-.427c-.002-.01-.009-.017-.016-.018Zm.264-.113-.014.002-.184.093-.01.01-.003.011.018.43.005.012.008.008.201.092c.012.004.023 0 .029-.008l.004-.014-.034-.614c-.003-.012-.01-.02-.02-.022Zm-.715.002a.023.023 0 0 0-.027.006l-.006.014-.034.614c0 .012.007.02.017.024l.015-.002.201-.093.01-.008.003-.011.018-.43-.003-.012-.01-.01-.184-.092Z"/><path fill="#09244B" d="m13.25 2.795 7.998 4.617a2.5 2.5 0 0 1 1.25 2.165v4.846a2.5 2.5 0 0 1-1.25 2.165l-7.998 4.617a2.5 2.5 0 0 1-2.5 0l-7.998-4.617a2.5 2.5 0 0 1-1.25-2.165V9.577a2.5 2.5 0 0 1 1.25-2.165l7.998-4.617a2.5 2.5 0 0 1 2.5 0ZM8.198 13.732 6.002 15l4.498 2.597V15.06l-2.302-1.329Zm7.604 0L13.5 15.061v2.536L17.998 15l-2.196-1.268ZM12 11.537l-.802.463.802.463.802-.463-.802-.463Zm-7.498.061v.804L5.198 12l-.696-.402Zm14.996 0-.696.402.696.402v-.804ZM13.5 6.403V8.94l2.302 1.329L17.998 9 13.5 6.403Zm-3 0L6.002 9l2.196 1.268 2.302-1.33V6.404Z"/></g></svg>
